(.../pcb-gcode-3.6.2.4/pcb-gcode.ulp)
(Copyright 2005 - 2012 by John Johnson)
(See readme.txt for licensing terms.)
(This file generated from the board:)
(.../HDC1080 Breakout/HDC1080 Breakout.brd)
(Current profile is .../pcb-gcode-3.6.2.4/profiles/emc.pp  )
(This file generated 8/21/2016 1:30 PM)
(Settings from pcb-machine.h)
(spindle on time = 3.0000)
(spindle speed = 20000.0000)
(tool change at 0.0000 0.0000 1.0000 )
(feed rate xy = F0.00  )
(feed rate z  = F5.00  )
(Z Axis Settings)
(  High     Up        Down     Drill)
(0.5000 	0.1000 	-0.0070 	-0.0650 )
(Settings from pcb-defaults.h)
(isolate min = 0.0010)
(isolate max = 0.0200)
(isolate step = 0.0050)
(Generated top outlines, top drill, bottom outlines, bottom drill, )
(Unit of measure: inch)
( Tool|       Size       |  Min Sub |  Max Sub |   Count )
( T01 | 0.508mm 0.0200in | 0.0000in | 0.0000in |       0 )
( T02 | 1.016mm 0.0400in | 0.0000in | 0.0000in |       0 )
(Inch Mode)
G20
(Absolute Coordinates)
G90
S20000
G00 Z0.5000 
G00 X0.0000 Y0.0000 
M03
G04 P3.000000
M05
G00 Z1.0000 
M06 T01 (0.0200 )
G01 Z0.0000 F5.00  
M06 
G00 Z0.1000 
M03
G04 P3.000000
G82 X-0.4200 Y0.2400 Z-0.0650 F5.00  R0.1000 P0.500000
M05
G00 Z1.0000 
G00 X0.0000 Y0.0000 
M06 T02 (0.0400 )
G01 Z0.0000 F5.00  
M06 
G00 Z0.1000 
M03
G04 P3.000000
G82 X-0.7000 Y0.1000 Z-0.0650 F5.00  R0.1000 P0.500000
G82 X-0.7000 Y0.2000 
G82 X-0.7000 Y0.3000 
G82 X-0.7000 Y0.4000 
T01 
G00 Z0.5000 
M05
M02
